X:1
T:James Gibb editions
T:Ecce nunc benedicite - Palestrina
T:#
%%score [ 1 2 3 4 ]
L:1/8
Q:1/4=100
M:4/4
K:G
V:1 treble-8 nm="Tenor I" snm="T I"
V:2 treble-8 nm="Tenor II" snm="T II"
V:3 treble-8 nm="Tenor III" snm="T III"
V:4 bass nm="Bass II" snm="B II"
V:1
"^Ecce nunc benedicite""^G. P. da Palestina\n(1525-94)" z8 | z8 | z8 | z8 | c8 | d4 e4 | %6
w: ||||Ec-|ce nunc|
 c3 B c2 A2 |[M:4/4][K:treble-8] (BcdB c2) c2- | c2 B2 d4 | z2 B4 d2 | e2 c2 A4 | B3 c d2 d2- | %12
w: be- ne- di- ci-|te * * * * Do\-|* mi- num,|ec- ce|nunc be- ne-|di- ci- te Do\-|
 d2 ^c2 d2 A2- | A2 B2 G4 | G4 A2 A2 | d4 z2 B2 | d4 G2 B2 | A2 G2 (A2 B2- | BA G2 F2) B2 | %19
w: * mi- num o\-|* mnes ser-|vi Do- mi-|ni: qui|sta- tis in|do- mo Do\- *|* * * * mi-|
 (A4 B4) | z2 d2 c2 B2 | A3 A A2 d2 | e3 e e2 d2- | d2 c2 B2 E2 | z2 (A3 GEF | GFED E4) | F4 B4 | %27
w: ni, *|in do- mo|Do- mi- ni, in|a- tri- is do\-|* mus De- i|no\- * * *||stri. In|
 A3 A A4 | z8 | z2 A2 B3 B | B2 d4 c2 | B2 A3 G (G2- | G2 F2 E4) | D8- | D4 z2 F2 | F2 F2 G4- | %36
w: no- cti- bus||ex- tol- li-|te ma- nus|ve- stras in san\-||cta,|* et|be- ne- di\-|
 G2 F2 (EDCD | EF G2) (A3 G | F2 G2 D4 | d4 (B3 A | G2) F2 E4 | G2 G2 A3 G | F2 B4 B2 | B4 A4 | %44
w: * ci- te * * *|* * * Do\- *|* mi- num,|et be\- *|* ne- di-|ci- te Do- mi-|num. Be- ne-|di- cat|
 B4 A4 | F4 D4 | E4 F4 | G4 F4 | z4 z2 G2 | c2 d2 e2 d2- | d2 ^c2 d3 =c | BA B4 A2- | AG G4 F2 | %53
w: ti- bi|Do- mi-|nus ex|Si- on,|qui|fe- cit coe- lum|* et ter\- *|||
 GABG A2) (GF | E4) z2[Q:1/4=99] D2 |[Q:1/4=98] G2[Q:1/4=97] A2[Q:1/4=96] B4 | %56
w: * * * * * ram, *|* qui|fe- cit coe-|
[Q:1/4=94] A2[Q:1/4=93] A2[Q:1/4=92] (G3[Q:1/4=91] F |[Q:1/4=90] E8) |[Q:1/4=86] !fermata!F8 |] %59
w: lum et ter\- *||ram.|
V:2
 G8 | A4 B4 | G3 F G2 E2 | (FGAF G2) (G2- | GFED E2) E2 | D2 F2 E2 G2 | A2 (G3 F/E/ F2) | %7
w: Ec-|ce nunc|be- ne- di- ci-|te * * * * Do\-|* * * * * mi-|num, be- ne- di-|ci- te * * *|
[M:4/4][K:treble-8] (G3 F E4- | E2) E2 D4 | d3 c d2 B2 | (cdec d2) (d2- | dcBA B2) G2 | A6 d2- | %13
w: Do\- * *|* mi- num|be- ne- di- ci-|te * * * * Do\-|* * * * * mi-|num o\-|
 d2 d2 e4- | e2 d2 c2 c2 | B2 B2 d4 | G2 (B3 A G2) | F2 E2 F2 G2 | (E4 D4) | z4 z2 d2 | %20
w: * mnes ser\-|* vi Do- mi-|ni: qui sta-|tis in * *|do- mo Do- mi-|ni, *|in|
 c2 B2 A2 d2 | d6 B2 | c3 c c2 B2- | B2 A2 G3 A | (B2 ABcd e2- |"^," ed d4 ^c2) | d4 z2 d2 | %27
w: do- mo Do- mi-|ni, in|a- tri- is do\-|* mus De- i|no\- * * * * *||stri. In|
 ^c3 c c2 d2 | B3 B B4 | d2 d2 e2 (EF | GA B3 A G2- | G2 F2 E4 | D4 z2 A2 | F2 F2 G2 A2 | %34
w: no- cti- bus ex-|tol- li- te|ma- nus ve- stras *||* in san-|cta, ma-|nus ve- stras in|
 G4 F2 A2 | A2 A2 B4- | B2 A2 G2 (c2- | c2 B4 A2- | A2 G4 FE | FGAF G2) B2 | B2 B2 c2 c2 | %41
w: san- cta, et|be- ne- di\-|* ci- te Do\-||* mi- num, *|* * * * * et|be- ne- di- ci-|
 e2 d4 ^c2 | d4 z2 d2- | d2 d2 d2 d2 | d4 ^c4 | d^cBA B2) B2 | ^c2 c2 (d3 =c | B4) A2 A2 | %48
w: te Do- mi-|num. Be\-|* ne- di- cat|ti- bi|Do\- * * * * mi-|nus ex Si\- *|* on, qui|
 B2 c2 d4 | c2 B4 (A2- | AG G4 F2 | G4) D4- | D4 z4 | z2 G2 c2 d2 | e4 d4 | z2 (d3 cdB | %56
w: fe- cit coe-|lum et ter\-||* ram||qui fe- cit|coe- lum|et * * *|
 cd e4) (d2- | d2 ^cB c4) | !fermata!d8 |] %59
w: * * * ter\-||ram.|
V:3
 z8 | z8 | z8 | z8 | z8 | z8 | z8 |[M:4/4][K:treble-8] z4 G4- | G4 A4 | B4 G3 F | G2 E2 (FGAF | %11
w: |||||||Ec\-|* ce|nunc be- ne-|di- ci- te * * *|
 G2) (G3 FED | E2) E2 D2 F2- | F2 G2 E2 C2 | (E/D/E/F/ G4) F2 | G8 | z8 | z2 B2 d4 | G2 (B3 A G2- | %19
w: * Do\- * * *|* mi- num o\-|* mnes ser- vi|Do\- * * * * mi-|ni:||qui sta-|tis in * *|
 GF F2) E2 D2 | (EF G2) E2 (G2- | G2 FE F2) G2 | G3 G G2 (G2- | GF E2) D2 (G2- | GF FE/D/ E4) | %25
w: * * * do- mo|Do\- * * mi- ni,|* * * * in|a- tri- is do\-|* * * mus De\-||
 B2 G2 A4- | A4 G4 | E3 E E2 F2 | G3 G G2 B2- | B2 A2 G4 | G2 F2 G2 E2 | z2 A2 B3 B | B2 d4 c2 | %33
w: i no- stri.|* In|no- cti- bus ex-|tol- li- te ma\-|* nus ve-|stras in san- ,cta|ex- tol- li-|te ma- nus|
 B4 B2 F2 | B4 A4 | z4 d4 | d2 d2 e4- | e2 d2 c2 c2- | c2 B2 A4- | A4 z2 G2 | E2 F2 G4 | %41
w: ve- stras in|san- cta,|et|be- ne- di\-|* ci- te Do\-|* mi- num,|* et|be- ne- di-|
 C2 D2 E2 E2 | D2 G4 G2 | G4 F4 | G4 E4 | (D3 E F2) ^G2 | A4 A4 | d4 d4 | z8 | z4 z2 D2 | %50
w: ci- te Do- mi-|num. Be- ne-|di- cat|ti- bi|Do\- * * mi-|nus ex|Si- on,||qui|
 G3 A B2 (A2- | A2 G4) F2 | B4 A4 | z4 z2 D2 | G2 A2 B4 | B2 G2 B4 | E2 c2 c2 B2 | A8 | %58
w: fe- cit coe- lum|* * et|ter- ram,|qui|fe- cit coe-|lum et ter-|ram, coe- lum et|ter-|
 !fermata!A8 |] %59
w: ram.|
V:4
 z8 | z8 | C,8 | D,4 E,4 | C,3 B,, C,2 A,,2 | (B,,C,D,B,, C,2) (C,2- | C,B,,A,,G,, A,,2) A,,2 | %7
w: ||Ec-|ce nunc|be- ne- di- ci-|te * * * * Do\-|* * * * * mi-|
[M:4/4] G,,4 (C,3 D, | E,F, G,4) F,2 | G,2 G,,4 G,,2 | C,4 z2 D,2 | G,,2 G,,2 G,,2 B,,2 | %12
w: num, Do\- *|* * * mi-|num, ec- ce|nunc be-|ne- di- ci- te|
 A,,2 A,,2 D,2 D,2- | D,2 B,,2 C,4- | C,2 B,,2 A,,2 A,,2 | G,,8- | G,,8 | z8 | z4 B,,4 | %19
w: Do- mi- num o\-|* mnes ser\-|* vi Do- mi-|ni:|||qui|
 D,4 G,,2 B,,2 | A,,2 G,,2 A,,2 B,,2 | D,6 G,,2 | C,3 C, C,2 G,,2- | G,,2 A,,2 B,,2 C,2 | %24
w: sta- tis in|do- mo Do- mi-|ni, in|a- tri- is do\-|* mus De- i|
 (D,3 C,A,,B,, C,2 | B,,4 A,,4) | D,4 G,,4 | A,,3 A,, A,,2 D,2 | E,3 E, E,2 G,2- | G,2 F,2 E,4 | %30
w: no\- * * * *||stri, In|no- cti- bus ex-|tol- li- te ma\-|* nus ve-|
 E,2 B,,2 E,4 | D,4 z4 | (B,,3 A,, G,,2) A,,2 | B,,4 G,,2 D,2 | G,,4 D,4- | D,4 z4 | z8 | z8 | %38
w: stras in san-|cta,|ma\- * * nus|ve- stras in|san- cta,||||
 z4 z2 D,2 | D,2 D,2 E,4- | E,2 D,2 C,2 C,2- | C,2 B,,2 A,,4 | z2 G,,4 G,,2 | G,,4 D,4 | %44
w: et|be- ne- di\-|* ci- te Do\-|* mi- num.|Be- ne-|di- cat|
 G,,4 A,,4 | B,,6 B,,2 | A,,4 D,4 | G,,4 D,2 D,2 | G,2 A,2 B,4 | A,2 (G,4 F,2) | E,4 D,4 | z8 | %52
w: ti- bi|Do- mi-|nus ex|Si- on, qui|fe- cit coe-|lum et *|ter- ram,||
 G,,4 C,2 D,2 | E,4 A,,2 B,,2 | C,4 G,,4- | G,,2 D,2 G,,2 G,,2 | A,,4 C,2 G,,2 | A,,8 | %58
w: qui fe- cit|coe- lum et|ter- ram,|* qui fe- cit|coe- lum et|ter-|
 !fermata!D,8 |] %59
w: ram.|

